icons/grip-vertical.svg

<svg width="24" height="24" viewBox="0 0 24 24" fill="none" xmlns="http://www.w3.org/2000/svg">
<path d="M8.66945 12H7.72501M16.225 12H15.2806M8.66945 4.875H7.72501M16.225 4.875H15.2806M8.66945 19.125H7.72501M16.225 19.125H15.2806" stroke="black" stroke-width="2" stroke-linecap="round" stroke-linejoin="round"/>
</svg>

<svg xmlns="http://www.w3.org/2000/svg" width="24" height="24" viewBox="0 0 24 24" fill="none" stroke="currentColor" stroke-width="2" stroke-linecap="round" stroke-linejoin="round">
<path d="M8.67 12h-.945m8.5 0h-.944M8.669 4.875h-.944m8.5 0h-.944m-6.612 14.25h-.944m8.5 0h-.944"/>
</svg>
